;FLAVOR:RepRap
;TIME:4536
;Filament used: 2.01405m
;Layer height: 0.2
;MINX:147.239
;MINY:140.715
;MINZ:0.2
;MAXX:204.882
;MAXY:194.101
;MAXZ:36.71
;TARGET_MACHINE.NAME:VORON2 350
;Generated with Cura_SteamEngine 5.5.0
T0
M190 S110
M104 S270
M109 S270
M82 ;absolute extrusion mode
ClEAN_NOZZLE
print_start
M83 ;relative extrusion mode
G1 F2700 E-0.8
;LAYER_COUNT:262
;LAYER:0
M107
M566 X1800 Y1800
G1 F600 Z0.4
G0 F7200 X149.772 Y161.122 Z0.4
M566 X1200 Y1200
;TYPE:SKIRT
G1 F600 Z0.2
G1 F1080 E0.8
G1 F1200 X150.359 Y160.613 E0.02843
G1 X151.183 Y160.046 E0.03659
G1 X151.971 Y159.632 E0.03257
G1 X153.363 Y159.133 E0.0541
G1 X154.422 Y158.918 E0.03954
G1 X154.688 Y158.89 E0.00979
G1 X164.42 Y158.856 E0.35606
G1 X165.709 Y158.601 E0.04807
G1 X165.248 Y156.935 E0.06324
G1 X165.158 Y156.303 E0.02336
G1 X165.189 Y154.347 E0.07157
G1 X165.364 Y153.416 E0.03466
G1 X166.522 Y149.512 E0.14898
G1 X167.169 Y148.128 E0.0559
G1 X167.651 Y147.4 E0.03194
G1 X168.259 Y146.664 E0.03493
G1 X171.169 Y143.667 E0.15283
G1 X171.988 Y143.036 E0.03783
G1 X173.203 Y142.36 E0.05087
G1 X174.176 Y141.978 E0.03824
G1 X178.223 Y140.873 E0.15348
G1 X179.26 Y140.733 E0.03828
G1 X179.809 Y140.715 E0.0201
G1 X182.036 Y140.997 E0.08213
G1 X185.334 Y141.922 E0.12532
G1 X186.807 Y142.531 E0.05832
G1 X188.013 Y143.279 E0.05192
G1 X188.951 Y144.086 E0.04527
G1 X190.277 Y145.575 E0.07295
G1 X191.04 Y146.779 E0.05215
G1 X191.512 Y147.863 E0.04326
G1 X191.724 Y148.634 E0.02925
G1 X191.76 Y148.886 E0.00931
G1 X193.468 Y148.914 E0.0625
G1 X194.064 Y149.003 E0.02205
G1 X195.505 Y149.407 E0.05475
G1 X196.299 Y149.757 E0.03175
G1 X196.838 Y150.06 E0.02262
G1 X197.949 Y150.883 E0.05058
G1 X198.888 Y151.844 E0.04916
G1 X199.637 Y152.9 E0.04737
G1 X199.951 Y153.497 E0.02468
G1 X200.328 Y154.452 E0.03756
G1 X200.627 Y155.653 E0.04528
G1 X200.762 Y157.018 E0.05018
G1 X200.705 Y166.25 E0.33777
G1 X200.628 Y166.792 E0.02003
G1 X200.261 Y168.168 E0.0521
G1 X200.228 Y168.256 E0.00344
G1 X202.144 Y170.336 E0.10346
G1 X202.907 Y171.48 E0.05031
G1 X203.13 Y171.926 E0.01824
G1 X203.577 Y173.081 E0.04531
G1 X204.619 Y176.701 E0.13782
G1 X204.882 Y178.74 E0.07522
G1 X204.857 Y179.431 E0.0253
G1 X204.604 Y181.001 E0.05818
G1 X203.566 Y184.686 E0.14007
G1 X202.818 Y186.391 E0.06812
G1 X202.174 Y187.368 E0.04281
G1 X201.511 Y188.151 E0.03754
G1 X198.805 Y190.847 E0.13975
G1 X197.575 Y191.791 E0.05673
G1 X196.382 Y192.438 E0.04965
G1 X195.439 Y192.797 E0.03692
G1 X191.605 Y193.862 E0.14558
G1 X189.888 Y194.098 E0.06341
G1 X189.405 Y194.101 E0.01767
G1 X188.389 Y194.017 E0.0373
G1 X187.643 Y193.879 E0.02776
G1 X183.119 Y192.514 E0.17289
G1 X181.875 Y191.9 E0.05076
G1 X181.213 Y191.448 E0.02933
G1 X180.535 Y190.882 E0.03231
G1 X177.132 Y187.415 E0.17774
G1 X176.97 Y187.209 E0.00959
G1 X176.362 Y186.301 E0.03998
G1 X175.872 Y185.321 E0.04009
G1 X175.618 Y184.641 E0.02656
G1 X174.534 Y180.905 E0.14232
G1 X174.283 Y179.233 E0.06186
G1 X174.278 Y178.967 E0.00973
G1 X174.31 Y178.135 E0.03046
G1 X165.755 Y178.127 E0.31299
G1 X165.809 Y179.126 E0.0366
G1 X165.763 Y179.691 E0.02074
G1 X165.599 Y180.665 E0.03614
G1 X165.357 Y181.485 E0.03128
G1 X164.807 Y182.72 E0.04946
G1 X164.254 Y183.595 E0.03787
G1 X163.662 Y184.303 E0.03377
G1 X162.693 Y185.19 E0.04806
G1 X161.614 Y185.92 E0.04766
G1 X161.067 Y186.197 E0.02243
G1 X160.028 Y186.592 E0.04067
G1 X158.542 Y186.968 E0.05608
G1 X157.486 Y187.087 E0.03888
G1 X156.145 Y187.046 E0.04908
G1 X155.205 Y186.882 E0.03491
G1 X153.651 Y186.413 E0.05939
G1 X152.444 Y185.842 E0.04885
G1 X151.295 Y185.059 E0.05087
G1 X150.794 Y184.614 E0.02452
G1 X150.489 Y184.294 E0.01617
G1 X149.643 Y183.188 E0.05094
G1 X149.246 Y182.511 E0.02871
G1 X148.901 Y181.743 E0.0308
G1 X148.656 Y180.978 E0.02939
G1 X148.422 Y179.8 E0.04394
G1 X148.364 Y178.726 E0.03935
G1 X148.447 Y177.601 E0.04127
G1 X148.522 Y177.182 E0.01557
G1 X148.87 Y175.972 E0.04606
G1 X149.191 Y175.252 E0.02884
G1 X148.377 Y174.121 E0.05098
G1 X147.991 Y173.365 E0.03106
G1 X147.59 Y172.301 E0.0416
G1 X147.343 Y171.197 E0.04139
G1 X147.239 Y170.009 E0.04363
G1 X147.284 Y166.266 E0.13695
G1 X147.4 Y165.461 E0.02976
G1 X147.685 Y164.398 E0.04026
G1 X148.114 Y163.376 E0.04055
G1 X148.574 Y162.583 E0.03354
G1 X149.199 Y161.739 E0.03842
G1 X149.278 Y161.654 E0.00425
G0 F1080 X149.772 Y161.122
M566 X1800 Y1800
G0 F7200 X150.061 Y161.454
M566 X1200 Y1200
G1 F1200 X150.61 Y160.975 E0.02666
G1 X151.388 Y160.436 E0.03463
G1 X152.176 Y160.022 E0.03257
G1 X153.451 Y159.564 E0.04957
G1 X154.468 Y159.356 E0.03798
G1 X154.734 Y159.328 E0.00979
G1 X164.465 Y159.296 E0.35602
G1 X166.261 Y158.941 E0.06698
G1 X165.684 Y156.873 E0.07855
G1 X165.594 Y156.241 E0.02336
G1 X165.622 Y154.427 E0.06638
G1 X165.786 Y153.541 E0.03297
G1 X166.944 Y149.637 E0.14898
G1 X167.567 Y148.316 E0.05344
G1 X167.99 Y147.68 E0.02795
G1 X168.575 Y146.971 E0.03363
G1 X171.485 Y143.974 E0.15283
G1 X172.203 Y143.42 E0.03318
G1 X173.364 Y142.77 E0.04868
G1 X174.337 Y142.388 E0.03824
G1 X178.283 Y141.309 E0.14967
G1 X179.274 Y141.173 E0.0366
G1 X179.823 Y141.155 E0.0201
G1 X181.917 Y141.421 E0.07723
G1 X185.215 Y142.346 E0.12532
G1 X186.575 Y142.905 E0.0538
G1 X187.781 Y143.653 E0.05192
G1 X188.623 Y144.379 E0.04068
G1 X189.905 Y145.811 E0.07032
G1 X190.668 Y147.015 E0.05215
G1 X191.088 Y147.982 E0.03857
G1 X191.288 Y148.696 E0.02713
G1 X191.377 Y149.32 E0.02306
G1 X193.406 Y149.35 E0.07424
G1 X193.946 Y149.427 E0.01996
G1 X195.328 Y149.81 E0.05247
G1 X196.083 Y150.141 E0.03016
G1 X196.622 Y150.444 E0.02262
G1 X197.634 Y151.191 E0.04602
G1 X198.573 Y152.152 E0.04916
G1 X199.248 Y153.106 E0.04276
G1 X199.542 Y153.66 E0.02295
G1 X199.901 Y154.56 E0.03545
G1 X200.189 Y155.697 E0.04291
G1 X200.322 Y157.015 E0.04847
G1 X200.269 Y166.188 E0.33561
G1 X200.192 Y166.73 E0.02003
G1 X199.836 Y168.054 E0.05016
G1 X199.705 Y168.375 E0.01268
G1 X199.885 Y168.533 E0.00876
G1 X201.82 Y170.634 E0.1045
G1 X202.513 Y171.677 E0.04581
G1 X202.736 Y172.123 E0.01824
G1 X203.154 Y173.203 E0.04237
G1 X204.196 Y176.823 E0.13782
G1 X204.442 Y178.724 E0.07013
G1 X204.417 Y179.415 E0.0253
G1 X204.18 Y180.882 E0.05437
G1 X203.142 Y184.567 E0.14007
G1 X202.45 Y186.15 E0.06321
G1 X201.838 Y187.084 E0.04085
G1 X201.2 Y187.839 E0.03616
G1 X198.494 Y190.535 E0.13975
G1 X197.364 Y191.405 E0.05218
G1 X196.225 Y192.027 E0.04748
G1 X195.321 Y192.373 E0.03541
G1 X191.544 Y193.426 E0.14346
G1 X189.884 Y193.658 E0.06132
G1 X189.44 Y193.662 E0.01624
G1 X188.469 Y193.584 E0.03564
G1 X187.723 Y193.446 E0.02776
G1 X183.246 Y192.093 E0.17111
G1 X182.122 Y191.536 E0.0459
G1 X181.495 Y191.11 E0.02773
G1 X180.817 Y190.544 E0.03231
G1 X177.477 Y187.142 E0.17443
G1 X177.335 Y186.963 E0.00836
G1 X176.755 Y186.103 E0.03795
G1 X176.284 Y185.167 E0.03834
G1 X176.041 Y184.518 E0.02535
G1 X174.957 Y180.782 E0.14232
G1 X174.723 Y179.224 E0.05764
G1 X174.718 Y178.984 E0.00878
G1 X174.756 Y177.989 E0.03643
G1 X174.805 Y177.695 E0.0109
G1 X165.289 Y177.687 E0.34815
G1 X165.37 Y179.092 E0.05149
G1 X165.329 Y179.618 E0.0193
G1 X165.165 Y180.592 E0.03614
G1 X164.954 Y181.307 E0.02727
G1 X164.434 Y182.486 E0.04714
G1 X163.916 Y183.313 E0.0357
G1 X163.324 Y184.021 E0.03377
G1 X162.446 Y184.826 E0.04358
G1 X161.415 Y185.527 E0.04561
G1 X160.868 Y185.804 E0.02243
G1 X159.92 Y186.165 E0.03711
G1 X158.434 Y186.541 E0.05608
G1 X157.498 Y186.647 E0.03446
G1 X156.219 Y186.612 E0.04681
G1 X155.331 Y186.46 E0.03296
G1 X153.837 Y186.014 E0.05704
G1 X152.691 Y185.478 E0.04629
G1 X151.587 Y184.73 E0.04879
G1 X151.113 Y184.31 E0.02317
G1 X150.808 Y183.99 E0.01617
G1 X150.023 Y182.965 E0.04724
G1 X149.626 Y182.288 E0.02871
G1 X149.32 Y181.607 E0.02731
G1 X149.088 Y180.892 E0.0275
G1 X148.854 Y179.714 E0.04394
G1 X148.803 Y178.758 E0.03503
G1 X148.886 Y177.633 E0.04127
G1 X148.945 Y177.302 E0.0123
G1 X149.272 Y176.151 E0.04378
G1 X149.662 Y175.276 E0.03505
G1 X149.723 Y175.173 E0.00438
G1 X149.513 Y174.953 E0.01113
G1 X148.735 Y173.865 E0.04894
G1 X148.403 Y173.21 E0.02687
G1 X148.002 Y172.146 E0.0416
G1 X147.781 Y171.158 E0.03704
G1 X147.679 Y170.014 E0.04202
G1 X147.72 Y166.329 E0.13483
G1 X147.836 Y165.524 E0.02976
G1 X148.091 Y164.568 E0.0362
G1 X148.52 Y163.546 E0.04055
G1 X148.928 Y162.845 E0.02967
G1 X149.553 Y162.001 E0.03842
G1 X149.566 Y161.987 E0.0007
G0 F1080 X150.061 Y161.454
M566 X1800 Y1800
G0 F7200 X150.382 Y161.755
M566 X1200 Y1200
G1 F1200 X150.862 Y161.336 E0.02331
G1 X151.593 Y160.826 E0.03261
G1 X152.381 Y160.412 E0.03257
G1 X153.598 Y159.979 E0.04726
G1 X154.514 Y159.794 E0.03419
G1 X154.78 Y159.766 E0.00979
G1 X164.51 Y159.736 E0.35598
G1 X166.814 Y159.28 E0.08593
G1 X166.12 Y156.811 E0.09383
G1 X166.03 Y156.179 E0.02336
G1 X166.055 Y154.506 E0.06122
G1 X166.208 Y153.666 E0.03124
G1 X167.366 Y149.762 E0.14898
G1 X167.934 Y148.559 E0.04867
G1 X168.33 Y147.96 E0.02627
G1 X168.891 Y147.278 E0.03231
G1 X171.801 Y144.281 E0.15283
G1 X172.419 Y143.803 E0.02858
G1 X173.525 Y143.18 E0.04644
G1 X174.498 Y142.798 E0.03824
G1 X178.344 Y141.745 E0.14589
G1 X179.288 Y141.613 E0.03487
G1 X179.837 Y141.595 E0.0201
G1 X181.798 Y141.845 E0.07233
G1 X185.096 Y142.77 E0.12532
G1 X186.407 Y143.312 E0.0519
G1 X187.547 Y144.026 E0.04921
G1 X188.334 Y144.711 E0.03817
G1 X189.534 Y146.048 E0.06573
G1 X190.264 Y147.19 E0.04959
G1 X190.684 Y148.157 E0.03857
G1 X190.852 Y148.758 E0.02283
G1 X190.995 Y149.755 E0.03685
G1 X193.344 Y149.786 E0.08595
G1 X193.884 Y149.863 E0.01996
G1 X195.152 Y150.213 E0.04813
G1 X195.867 Y150.525 E0.02854
G1 X196.406 Y150.828 E0.02262
G1 X197.321 Y151.5 E0.04153
G1 X198.215 Y152.407 E0.04659
G1 X198.859 Y153.312 E0.04064
G1 X199.153 Y153.866 E0.02295
G1 X199.474 Y154.668 E0.03161
G1 X199.762 Y155.805 E0.04291
G1 X199.882 Y157.013 E0.04441
G1 X199.833 Y166.126 E0.33341
G1 X199.756 Y166.668 E0.02003
G1 X199.428 Y167.888 E0.04622
G1 X199.245 Y168.338 E0.01777
G1 X199.166 Y168.487 E0.00617
G1 X199.595 Y168.864 E0.02089
G1 X201.454 Y170.878 E0.10028
G1 X202.119 Y171.874 E0.04382
G1 X202.342 Y172.32 E0.01824
G1 X202.731 Y173.325 E0.03943
G1 X203.773 Y176.945 E0.13782
G1 X204.002 Y178.708 E0.06504
G1 X203.977 Y179.399 E0.0253
G1 X203.756 Y180.763 E0.05055
G1 X202.718 Y184.448 E0.14007
G1 X202.081 Y185.91 E0.05835
G1 X201.502 Y186.8 E0.03885
G1 X200.889 Y187.527 E0.03479
G1 X198.183 Y190.223 E0.13975
G1 X197.153 Y191.019 E0.04763
G1 X196.014 Y191.641 E0.04748
G1 X195.202 Y191.949 E0.03177
G1 X191.482 Y192.99 E0.14133
G1 X189.879 Y193.218 E0.05924
G1 X189.474 Y193.223 E0.01482
G1 X188.549 Y193.151 E0.03394
G1 X187.803 Y193.013 E0.02776
G1 X183.44 Y191.698 E0.16672
G1 X182.368 Y191.171 E0.0437
G1 X181.777 Y190.772 E0.02609
G1 X181.099 Y190.206 E0.03231
G1 X177.791 Y186.834 E0.17282
G1 X177.7 Y186.717 E0.00542
G1 X177.12 Y185.857 E0.03795
G1 X176.696 Y185.012 E0.03459
G1 X176.464 Y184.395 E0.02412
G1 X175.38 Y180.659 E0.14232
G1 X175.163 Y179.214 E0.05346
G1 X175.158 Y179.001 E0.00779
G1 X175.196 Y178.006 E0.03643
G1 X175.333 Y177.255 E0.02793
G1 X164.768 Y177.247 E0.38653
G1 X164.845 Y177.634 E0.01444
G1 X164.931 Y179.117 E0.05435
G1 X164.895 Y179.545 E0.01571
G1 X164.731 Y180.519 E0.03614
G1 X164.551 Y181.131 E0.02334
G1 X164.061 Y182.252 E0.04476
G1 X163.543 Y183.079 E0.0357
G1 X163.025 Y183.698 E0.02953
G1 X162.198 Y184.463 E0.04122
G1 X161.216 Y185.134 E0.04351
G1 X160.669 Y185.411 E0.02243
G1 X159.812 Y185.738 E0.03356
G1 X158.326 Y186.114 E0.05608
G1 X157.508 Y186.207 E0.03012
G1 X156.292 Y186.178 E0.0445
G1 X155.457 Y186.038 E0.03098
G1 X153.963 Y185.592 E0.05704
G1 X152.879 Y185.08 E0.04386
G1 X151.878 Y184.4 E0.04427
G1 X151.432 Y184.006 E0.02177
G1 X151.127 Y183.686 E0.01617
G1 X150.403 Y182.742 E0.04353
G1 X150.006 Y182.065 E0.02871
G1 X149.739 Y181.471 E0.02383
G1 X149.507 Y180.756 E0.0275
G1 X149.293 Y179.689 E0.03981
G1 X149.242 Y178.79 E0.03294
G1 X149.32 Y177.707 E0.03973
G1 X149.369 Y177.42 E0.01065
G1 X149.674 Y176.329 E0.04145
G1 X150.041 Y175.5 E0.03317
G1 X150.274 Y175.106 E0.01675
G1 X149.87 Y174.696 E0.02106
G1 X149.127 Y173.665 E0.04649
G1 X148.815 Y173.055 E0.02507
G1 X148.414 Y171.991 E0.0416
G1 X148.219 Y171.118 E0.03273
G1 X148.119 Y170.018 E0.04041
G1 X148.156 Y166.392 E0.13267
G1 X148.272 Y165.587 E0.02976
G1 X148.497 Y164.737 E0.03217
G1 X148.901 Y163.766 E0.03848
G1 X149.282 Y163.107 E0.02785
G1 X149.888 Y162.288 E0.03727
G0 F1080 X149.907 Y162.263
G0 X150.382 Y161.755
M566 X1800 Y1800
G0 F7200 X150.673 Y162.085
M566 X1200 Y1200
G1 F1200 X151.115 Y161.696 E0.02154
G1 X151.798 Y161.216 E0.03054
G1 X152.586 Y160.802 E0.03257
G1 X153.686 Y160.41 E0.04272
G1 X154.56 Y160.232 E0.03263
G1 X154.826 Y160.204 E0.00979
G1 X164.555 Y160.176 E0.35595
G1 X167.389 Y159.615 E0.1057
G1 X167.309 Y159.414 E0.00791
G1 X166.556 Y156.749 E0.10132
G1 X166.466 Y156.117 E0.02336
G1 X166.488 Y154.584 E0.05609
G1 X166.63 Y153.791 E0.02947
G1 X167.765 Y149.948 E0.1466
G1 X168.302 Y148.8 E0.04637
G1 X168.67 Y148.239 E0.02455
G1 X169.207 Y147.585 E0.03096
G1 X172.117 Y144.588 E0.15283
G1 X172.686 Y144.153 E0.0262
G1 X173.686 Y143.59 E0.04199
G1 X174.659 Y143.208 E0.03824
G1 X178.406 Y142.181 E0.14214
G1 X179.302 Y142.053 E0.03311
G1 X179.851 Y142.035 E0.0201
G1 X181.679 Y142.269 E0.06743
G1 X184.977 Y143.194 E0.12532
G1 X186.175 Y143.686 E0.04738
G1 X187.259 Y144.359 E0.04668
G1 X188.007 Y145.006 E0.03618
G1 X189.164 Y146.287 E0.06315
G1 X189.86 Y147.365 E0.04695
G1 X190.28 Y148.332 E0.03857
G1 X190.416 Y148.821 E0.01857
G1 X190.613 Y150.191 E0.05064
G1 X193.282 Y150.222 E0.09766
G1 X193.822 Y150.299 E0.01996
G1 X194.977 Y150.617 E0.04383
G1 X195.651 Y150.909 E0.02687
G1 X196.19 Y151.212 E0.02262
G1 X197.009 Y151.81 E0.0371
G1 X197.857 Y152.663 E0.04401
G1 X198.471 Y153.52 E0.03857
G1 X198.745 Y154.031 E0.02121
G1 X199.047 Y154.776 E0.02941
G1 X199.335 Y155.913 E0.04291
G1 X199.442 Y157.011 E0.04036
G1 X199.397 Y166.064 E0.33122
G1 X199.32 Y166.606 E0.02003
G1 X199.02 Y167.722 E0.04228
G1 X198.837 Y168.172 E0.01777
G1 X198.591 Y168.618 E0.01863
G1 X198.927 Y168.857 E0.01509
G1 X199.301 Y169.192 E0.01837
G1 X201.13 Y171.176 E0.09872
G1 X201.725 Y172.071 E0.03932
G1 X201.948 Y172.517 E0.01824
G1 X202.308 Y173.447 E0.03649
G1 X203.35 Y177.067 E0.13782
G1 X203.562 Y178.692 E0.05996
G1 X203.537 Y179.383 E0.0253
G1 X203.332 Y180.644 E0.04674
G1 X202.294 Y184.329 E0.14007
G1 X201.678 Y185.733 E0.05609
G1 X201.165 Y186.517 E0.03428
G1 X200.578 Y187.215 E0.03337
G1 X197.872 Y189.911 E0.13975
G1 X196.885 Y190.67 E0.04555
G1 X195.857 Y191.23 E0.04283
G1 X195.083 Y191.525 E0.0303
G1 X191.363 Y192.566 E0.14133
G1 X189.818 Y192.782 E0.05708
G1 X189.507 Y192.784 E0.01138
G1 X188.629 Y192.718 E0.03221
G1 X187.883 Y192.58 E0.02776
G1 X183.567 Y191.277 E0.16494
G1 X182.613 Y190.805 E0.03894
G1 X182.059 Y190.434 E0.02439
G1 X181.381 Y189.868 E0.03231
G1 X178.136 Y186.561 E0.16951
G1 X178.064 Y186.47 E0.00425
G1 X177.513 Y185.659 E0.03587
G1 X177.108 Y184.857 E0.03287
G1 X176.887 Y184.272 E0.02288
G1 X175.803 Y180.536 E0.14232
G1 X175.603 Y179.202 E0.04935
G1 X175.598 Y179.018 E0.00673
G1 X175.636 Y178.023 E0.03643
G1 X175.837 Y176.954 E0.0398
G1 X175.883 Y176.815 E0.00536
G1 X164.186 Y176.807 E0.42795
G1 X164.315 Y177.226 E0.01604
G1 X164.413 Y177.72 E0.01843
G1 X164.492 Y179.082 E0.04991
G1 X164.461 Y179.473 E0.01435
G1 X164.308 Y180.397 E0.03427
G1 X164.147 Y180.956 E0.02128
G1 X163.687 Y182.02 E0.04241
G1 X163.204 Y182.798 E0.0335
G1 X162.725 Y183.376 E0.02746
G1 X161.949 Y184.1 E0.03883
G1 X161.017 Y184.741 E0.04138
G1 X160.47 Y185.018 E0.02243
G1 X159.704 Y185.311 E0.03001
G1 X158.218 Y185.687 E0.05608
G1 X157.517 Y185.767 E0.02581
G1 X156.363 Y185.744 E0.04223
